X: 262
U:~=!turn!
M:C
L:1/8
K:A
a | A<AeA cAAe | dBcA B=GGB | AAeA cAfe | d=GB<B e2 A :| a | eA c2 eAcA | d=GB<B dGBG |
eA c2 eAcA | d=GB<B e2 A :|d | c2a2 c<cae | =g2 df B<BdB | A<A a2 cAec | =g2 dB e2 Ad | c2 a2 c<cae |
=g2 df B<BdB | a>cc>a c>cec | g2 dB e2 A |: a | e2 Ae cAAB | d2 =Gd BGGB | e2 Aa cAec | d=GB<B e2 A ::
a | A<AcA dBcA | B<BcA dGGB | AAcA dBcA | B<Bed cAA :| e | A<AeA =g2 e<a | c<c=ge dGGB |


